X: 3
T: No_10_Escorting_the_Candidate.krn
N: Derived from No_10_Escorting_the_Candidate.krn
%%abc-version 2.0
%%abcx-abcm2ps-target-version 5.9.1 (29 Sep 2008)
%%abc-creator hum2abc beta
%%abcx-conversion-date 2019/03/15 08:29:13
%%humdrum-veritas 1056316193
%%humdrum-veritas-data 1469596171
%%linebreak <none>
%%barnumbers 0
L: 1/8
M: 3/4
%%staves {1 2}
V: 1 clef=bass
V: 2 clef=bass
K: Ab
[V:1] EE3/E/ [I:setbarnb 1]| 
[V:2] z3 | 
[V:1] E3E E3/E/ | 
[V:2] G,,G,, G,,G,, G,,G,, | 
[V:1] E2(CB,)B,2 | 
[V:2] z6 | 
[V:1] B,3B,B,2 | 
[V:2] z6 | 
[V:1] B,2B,3D | 
[V:2] z6 | 
[V:1] D3D D3/E/ | 
[V:2] z6 | 
[V:1] E3/E/D2DD | 
[V:2] z6 | 
[V:1] B,3B,B,2 | 
[V:2] z6 | 
[V:1] B,2B,3B, | 
[V:2] z6 | 
[V:1] A,3A, A,3/B,/ ||  
[V:2] z6 ||  
[V:1] [M:2/4](3B,2 B,2 B,2 ||  
[V:2] [M:2/4]z4 ||  
[V:1] [M:3/4]A,3A, A,3/A,/ | 
[V:2] [M:3/4]z6 | 
[V:1] A,3A, A,3/A,/ ||  
[V:2] z6 ||  
[V:1] [M:2/4](3A,2 F,2 E,2 ||  
[V:2] [M:2/4]z4 ||  
[V:1] [M:3/4]E,3E, E,3/E,/ | 
[V:2] [M:3/4]z6 | 
[V:1] E,3E, E,3/E,/ | 
[V:2] z6 | 
[V:1] (3E,2 B,,2 A,,2A,,2 |]  
[V:2] z6 |]  



